ui_kit/lib/assets/icons/stats.svg

<svg width="24" height="24" viewBox="0 0 24 24" fill="none" xmlns="http://www.w3.org/2000/svg">
<path fill-rule="evenodd" clip-rule="evenodd" d="M11.9992 2.46242C12.5107 2.44212 13.0158 2.58648 13.4397 2.87487C13.717 3.06351 13.9497 3.30706 14.1249 3.58824H14.25C14.5981 3.58824 14.9319 3.72652 15.1781 3.97266C15.3796 4.17417 15.5088 4.43446 15.549 4.71323H17.0625C17.5598 4.71323 18.0367 4.91077 18.3883 5.2624C18.74 5.61403 18.9375 6.09094 18.9375 6.58823V12.2132C18.9375 12.6274 18.6017 12.9632 18.1875 12.9632C17.7733 12.9632 17.4375 12.6274 17.4375 12.2132V6.58823C17.4375 6.48877 17.398 6.39339 17.3277 6.32306C17.2573 6.25274 17.162 6.21323 17.0625 6.21323H15.5625V7.15074C15.5625 7.49883 15.4242 7.83267 15.1781 8.07881C14.9319 8.32495 14.5981 8.46324 14.25 8.46324H9.75C9.4019 8.46324 9.06806 8.32495 8.82192 8.07881C8.57578 7.83267 8.4375 7.49883 8.4375 7.15074V6.21323H6.9375C6.83804 6.21323 6.74266 6.25274 6.67233 6.32306C6.60201 6.39339 6.5625 6.48877 6.5625 6.58823V12.2132C6.5625 12.6274 6.22671 12.9632 5.8125 12.9632C5.39829 12.9632 5.0625 12.6274 5.0625 12.2132V6.58823C5.0625 6.09095 5.26004 5.61403 5.61167 5.2624C5.96331 4.91077 6.44022 4.71323 6.9375 4.71323H8.45096C8.49119 4.43446 8.62041 4.17417 8.82192 3.97266C9.06806 3.72652 9.4019 3.58824 9.75 3.58824H9.87895C10.0536 3.30786 10.2856 3.0649 10.5619 2.8765C10.9847 2.58821 11.4885 2.4433 11.9992 2.46242ZM9.9375 6.96324H14.0625V5.08824H13.6537C13.3301 5.08824 13.043 4.88064 12.9415 4.57331C12.8799 4.3867 12.7585 4.22563 12.596 4.1151C12.4335 4.00457 12.2391 3.95076 12.0429 3.96201C12.0149 3.96361 11.9868 3.96364 11.9588 3.9621C11.7629 3.95131 11.569 4.00534 11.4069 4.11584C11.2448 4.22634 11.1237 4.38715 11.0622 4.5734C10.9607 4.88068 10.6736 5.08824 10.35 5.08824H9.9375V6.96324ZM9.64111 12.9833L11.0551 16.873C11.1237 17.067 11.2487 17.2361 11.4142 17.3586C11.582 17.4827 11.7835 17.5529 11.9921 17.5601C12.2007 17.5672 12.4065 17.5109 12.5825 17.3986C12.7558 17.2879 12.8921 17.1279 12.9737 16.9393L14.2931 13.9707L14.6291 14.6431L14.63 14.6451C14.716 14.8159 14.8478 14.9595 15.0106 15.0599C15.1734 15.1601 15.3608 15.2132 15.552 15.2132C15.5519 15.2132 15.5521 15.2132 15.552 15.2132H20.4375C20.8517 15.2132 21.1875 14.8774 21.1875 14.4632C21.1875 14.049 20.8517 13.7132 20.4375 13.7132H15.8413L15.1909 12.4113C15.1036 12.2365 14.9683 12.09 14.801 11.9891C14.6336 11.8881 14.441 11.8369 14.2456 11.8412C14.0502 11.8455 13.8601 11.9053 13.6973 12.0135C13.5346 12.1217 13.406 12.274 13.3264 12.4525L12.071 15.2772L10.6784 11.4462C10.6094 11.2567 10.4862 11.0913 10.3244 10.971C10.1625 10.8507 9.96893 10.7805 9.76758 10.7691C9.56623 10.7577 9.36596 10.8055 9.19154 10.9068C9.01723 11.0079 8.87637 11.158 8.7864 11.3384C8.78645 11.3383 8.78635 11.3385 8.7864 11.3384L7.59931 13.7132H3.5625C3.14829 13.7132 2.8125 14.049 2.8125 14.4632C2.8125 14.8774 3.14829 15.2132 3.5625 15.2132H7.88826C7.88818 15.2132 7.88834 15.2132 7.88826 15.2132C8.07945 15.2132 8.26712 15.1601 8.4299 15.0599C8.59274 14.9595 8.7245 14.8159 8.81047 14.6451L8.81136 14.6433L9.64111 12.9833ZM5.8125 15.9632C6.22671 15.9632 6.5625 16.299 6.5625 16.7132V18.9632C6.5625 19.0627 6.60201 19.1581 6.67233 19.2284C6.74266 19.2987 6.83805 19.3382 6.9375 19.3382H17.0625C17.162 19.3382 17.2573 19.2987 17.3277 19.2284C17.398 19.1581 17.4375 19.0627 17.4375 18.9632V16.7132C17.4375 16.299 17.7733 15.9632 18.1875 15.9632C18.6017 15.9632 18.9375 16.299 18.9375 16.7132V18.9632C18.9375 19.4605 18.74 19.9374 18.3883 20.2891C18.0367 20.6407 17.5598 20.8382 17.0625 20.8382H6.9375C6.44022 20.8382 5.9633 20.6407 5.61167 20.2891C5.26004 19.9374 5.0625 19.4605 5.0625 18.9632V16.7132C5.0625 16.299 5.39829 15.9632 5.8125 15.9632Z" fill="white"/>
</svg>

<svg xmlns="http://www.w3.org/2000/svg" width="24" height="24" fill="none" viewBox="0 0 24 24"><path fill="#fff" fill-rule="evenodd" d="M12 2.462a2.392 2.392 0 0 1 2.125 1.126h.125a1.313 1.313 0 0 1 1.299 1.125h1.514a1.875 1.875 0 0 1 1.875 1.875v5.625a.75.75 0 0 1-1.5 0V6.588a.375.375 0 0 0-.375-.375h-1.5v.938a1.313 1.313 0 0 1-1.313 1.312h-4.5a1.313 1.313 0 0 1-1.313-1.312v-.938h-1.5a.375.375 0 0 0-.375.375v5.625a.75.75 0 0 1-1.5 0V6.588a1.875 1.875 0 0 1 1.875-1.875h1.514A1.312 1.312 0 0 1 9.75 3.588h.129a2.393 2.393 0 0 1 2.12-1.126ZM9.936 6.963h4.126V5.088h-.41a.75.75 0 0 1-.712-.515.892.892 0 0 0-.898-.611.751.751 0 0 1-.084 0 .893.893 0 0 0-.897.611.75.75 0 0 1-.712.515h-.412v1.875Zm-.296 6.02 1.414 3.89a1.032 1.032 0 0 0 1.919.066l1.32-2.968.335.672.001.002a1.033 1.033 0 0 0 .922.568h4.886a.75.75 0 0 0 0-1.5H15.84l-.65-1.302a1.031 1.031 0 0 0-1.865.042l-1.255 2.824-1.393-3.83a1.033 1.033 0 0 0-1.892-.109L7.6 13.713H3.562a.75.75 0 0 0 0 1.5h4.326a1.034 1.034 0 0 0 .922-.568l.001-.002.83-1.66Zm-3.829 2.98a.75.75 0 0 1 .75.75v2.25a.375.375 0 0 0 .375.375h10.125a.375.375 0 0 0 .375-.375v-2.25a.75.75 0 0 1 1.5 0v2.25a1.875 1.875 0 0 1-1.875 1.875H6.938a1.875 1.875 0 0 1-1.875-1.875v-2.25a.75.75 0 0 1 .75-.75Z" clip-rule="evenodd"/></svg>
